X:1
T:The Poet's Heart
T:Solvejgs Song
T:(Solvejgs Lied)
T:Edvard Grieg, op. 23, n°1
T:Henrik Ibsen(1828-1906)
T:English version by Arthur Westbrook
T:German version by W. Henzen
T:(Original Key, A)
T:(Composed in 1874)
C:EdVard Grieg, op. 5, n°2
Z:Hans Christian Andersen (1805-1875)
%%score ( 1 2 ) { ( 3 5 ) | ( 4 6 ) }
L:1/8
Q:1/4=70
M:4/4
K:G
V:1 treble nm="Voice"
V:2 treble 
V:3 treble nm="Piano"
V:5 treble 
V:4 bass 
V:6 bass 
V:1
"^Un poco Andante" z8 | z8 | z8 | z8 | z8 | z8 | z8 || z8 | z4 z2!p![Q:1/4=60]"^T" B,2 | %9
w: ||||||||The|
w: ||||||||Der|
 E2 F G A2!<(! B c!<)! |!>(! (cB)!>)! B G E2!<(! (EG)!<)! | (GF) F ^D (!>!D<!>(!B,-) B,2- | %12
w: win- ter may wane and the|spring- * time go by, the *|spring- * time go by, _ _|
w: Win- ter mag schei- den, der|Früh- * ling ver- geh'n, der *|Früh- * ling ver- geh'n, _ _|
 B,2!>)! z2 z2 B,2 | E E F G A2!<(! B c!<)! |!>(! (cB)!>)! (BG) E2!<(! (EG)!<)! | %15
w: _ The|sum- mer too may van- ish, the|year * may * die, the *|
w: _ der|Som- mer mag ver- wel- ken, das|Jahr * ver- * weh'n, das *|
!>(! (GF)!>)! (F=D) D<B,- B,2- | B,2 z2 z2 z B, |"^cresc." B, ^D!<(! F G E2 B ^A!<)! | %18
w: year * may * die; _ _|_ But|one day you'll re- turn, that in|
w: Jahr * ver- * weh'n; _ _|_ du|keh- rest mir zu- rü- cke, ge-|
 (F2!>(! =A) ^G!>)!!<(! E3!<)! E |!>(! (=GF)!>)! (FE) !fermata!B2 z B, | %20
w: truth _ I know, in|truth * I _ know, And|
w: wiss, du wirst mein, ge-|wiss, * du wirst mein, ich|
!<(! (B,^D) F G E B B ^A!<)! |!f! F F!>(! =A ^G!>)! E3!<(! E!<)! |!>(! =G3!>)! F{FG} F3 E | %23
w: here _ I'll a- wait you as I|prom- ised long a- go, I|prom- ised long a-|
w: hab' _ es ver- spro- * chen, ich|har- re treu- lich, dein ich|har- re treu- lich|
{EF} E4-"_(humming\nto herself:)""_(vor sich hin\nsummend:)" E2!pp! z2 | %24
w: go. _|
w: dein. _|
!<(!!>(! (!fermata!B8-!<)!!>)! ||[K:E][M:3/4][Q:1/4=110]"^Allegretto con moto"!p! B>cB>AG>A | %26
w: Ah|_ _ _ _ _ _|
w: A|_ _ _ _ _ _|
 B2) (B4- | B>cB>AG>A | B6-) | B z!>(! (c4- | c!>)!B{/c}BG E) z | (!>!GF{/G}FDB,D | EG!<(! B4-) | %33
w: |||||||
w: |||||||
 B!<)! z!>(! (d3 c)!>)! | (!>!cB{/c}BGE) z | (!>!GF{/F}FDB,D | FB,DF (3B,DF) || %37
w: ||||
w: ||||
[M:4/4][Q:1/4=70]"^Tempo I"!pp! (E4 e4-) | e4- !fermata!e2 z2 ||[K:G] z8 | %40
w: |||
w: |||
 z4 z2!p![Q:1/4=60]"^T" B,2 | E2 F G A2!<(! B c!<)! |!>(! (cB)!>)! B G E2!<(! (EG)!<)! | %43
w: May|God guide your feet, if on|earth * still you rove, on *|
w: Gott|hel- fe dir, wenn du die|Son- * ne noch siehst, die *|
 (GF) F ^D (!>!D<!>(!B,-) B,2- | B,2!>)! z2 z2 B,2 | E E F G (A2!<(! B) c!<)! | %46
w: earth * still you rove _ _|_ His|bless- ed peace be yours, if in|
w: Son- * ne noch siehst. _ _|_ Gott|seg- ne dich, wenn du _ zu|
!>(! (cB)!>)! (BG) E2!<(! (EG)!<)! |!>(! (GF)!>)! (F=D) (!>!D<B,-) B,2- | B,2 z2 z4 | %49
w: realms * a- * bove, in *|realms * a- * bove. _ _|_|
w: Fü- * ssen ihm kniest, zu *|Fü- * ssen ihm kniest. _ _|_|
[Q:1/4=85]"^poco animato"[Q:1/4=65]"_poco animato"[Q:1/4=65]"^T" B, ^D!<(! F G E2 B ^A!<)! | %50
w: Faith- ful- ly I'll bide till a-|
w: Ich will dein- er har- ren, bis|
!>(! (F2 =A)!>)! ^G!<(! E3!<)! E |!>(! (=GF) (F!>)!E) !fermata!B2 z[Q:1/4=60]"^T" B, | %52
w: gain you draw near, a-|gain * you draw near, But|
w: du _ mir nah', bis|du _ mir _ nah', und|
!<(!"^cresc." B, ^D F G E2 B!f! ^A!<)! | %53
w: if you wait in heav- en at|
w: har- rest du dort o- ben, so|
[Q:1/4=85]"^poco animato"[Q:1/4=65]"^T"!>(! !tenuto!F !tenuto!F !tenuto!=A !tenuto!^G E3[Q:1/4=60]"^T" E!>)! | %54
w: last I'll meet you there, at|
w: tref- fen wir uns da, so|
!>(! =G3!>)! F!>(!{FG} F3!>)! E | %55
w: last I'll meet you|
w: tref- fen wir uns|
!p!{EF} E4-"_(humming\nto herself:)""_(vor sich hin\nsummend:)" E2 z2 | %56
w: there! _|
w: da! _|
!<(!!>(! !fermata!B8-!<)!!>)! ||[K:E][M:3/4][Q:1/4=110]"^Allegretto con moto"!p! B>cB>AG>A | %58
w: Ah|_ _ _ _ _ _|
w: A|_ _ _ _ _ _|
 B z (B4- | B>cB>AG>A | B6-) | B z!>(! (c4- | c!>)!B{/c}BG E) z | (!>!GF{/G}FDB,D | EG!<(! B4-) | %65
w: |||||||
w: |||||||
 B!<)! z!>(! (d3 c)!>)! | (!>!cB{/c}BGE) z | (!>!GF{/F}FDB,D | FB,DF (3B,DF) || %69
w: ||||
w: ||||
[M:4/4]!pp![Q:1/4=70]"^Tempo I" (E4 e4) | e4- !fermata!e2 z2 ||[K:G] z8 | z8 | z8 | z8 | z8 | z8 | %77
w: ||||||||
w: ||||||||
 !fermata!z8 |] %78
w: |
w: |
V:2
 x8 | x8 | x8 | x8 | x8 | x8 | x8 || x8 | x8 | x8 | x8 | x8 | x8 | x8 | x8 | x8 | x8 | x8 | x8 | %19
 x8 | x4 E2 x2 | x8 | x8 | x8 | x8 ||[K:E][M:3/4] x6 | x6 | x6 | x6 | x6 | x6 | x6 | x6 | x6 | x6 | %35
 x6 | x6 ||[M:4/4] x8 | x8 ||[K:G] x8 | x8 | x8 | x8 | x8 | x8 | x8 | x8 | x8 | x8 | x8 | x8 | x8 | %52
 x8 | x8 | x8 | x8 | x8 ||[K:E][M:3/4] x6 | x6 | x6 | x6 | x6 | x6 | x6 | x6 | x6 | x6 | x6 | x6 || %69
[M:4/4] x8 | x8 ||[K:G] x8 | x8 | x8 | x8 | x8 | x8 | x8 |] %78
V:3
 (B,4 (G,)B,EF |!<(!{FE} D8) | D4 B,DGA!<)! | (F2 B4) z2 |"_dim." (F,2 B,4) z2 | z8 | %6
!pp! [FB]4- [FB]2 z2 || z2 !tenuto![G,B,E]2 z2 !tenuto![G,B,E]2 | %8
 z2 !tenuto![G,B,E]2 z2 !tenuto![G,B,E]2 | z2 [G,B,E]2 z2 [F,B,^D]2 | z2 [G,B,E]2 z2 [G,B,E]2 | %11
 z2 [F,B,^D]2 z2 [G,-B,-E]2 | [EGBe]4- [EGBe]2 z2 | z2 [G,B,E]2!<(! z2 [A,DF]2!<)! | %14
!>(! z2!>)! [B,DG]2 z2 [G,CE]2 | z2 [F,CD]2 z2 [G,B,D]2- | [GBdg]4- [GBdg]2 z2 | %17
"_cresc." z2!<(! [B,^DF]2 z2 ([B,E-]2 | [^A,E]2!<)! [=A,^D]2!>(! E2 =D2 | %19
 ^C2!>)! =C2 !fermata!B,4) | z2!<(! ([F,B,^D]2 [E,B,E]2!<)! [B,B]2 | %21
!>(! [^A,^A]2 [=A,=A]2 [^G,^G]2!>)! [=G,=G]2) | (!>![A,CE]4 [A,B,^D]4) | %23
 [E,G,B,E]4- [E,G,B,E]2 z2 | !fermata!z8 ||[K:E][M:3/4]"_una corda" [A,DB]4 [A,DB]2 | %26
 [G,EB]4 [G,EB]2 | [A,DB]4 [A,DB]2 | [G,EB]4 [G,EB]2 | [A,DB]4 [A,DB]2 | [G,EB]4 [G,EB]2 | %31
 [A,DB]4 [A,DB]2 | [G,EB]4 [G,EB]2 | [A,DB]4 [A,DB]2 | [G,EB]4 [G,EB]2 | [A,DB]6- | [A,DB]6 || %37
[M:4/4] E4 [Ee]4 |!pp! [ege']4- !fermata![ege']2 z2 || %39
[K:G]!p! z2 !tenuto![G,B,E]2 z2 !tenuto![G,B,E]2 | z2 !tenuto![G,B,E]2 z2 !tenuto![G,B,E]2 | %41
 z2 [G,B,E]2 z2 [F,B,^D]2 | z2 [G,B,E]2 z2 [G,B,E]2 | z2 [F,B,^D]2 z2 [G,-B,-E]2 | %44
 [EGBe]4- [EGBe]2 z2 | z2 [G,B,E]2!<(! z2 [A,DF]2!<)! |!>(! z2!>)! [B,DG]2 z2 [G,CE]2 | %47
 z2 [F,CD]2 z2 [G,B,D]2- | [GBdg]4- [GBdg]2 z2 | z2 [B,^DF]2!<(! z2 ([B,E-]2 | %50
 [^A,E]2!<)! [=A,^D]2!>(! E2 =D2 | ^C2!>)! =C2 !fermata!B,4) | %52
"_cresc." z2!<(! [F,B,^D]2 [E,B,E]2!<)! [B,B]2 |!>(! [^A,^A]2 [=A,=A]2 [^G,^G]2!>)! [=G,=G]2 | %54
 (!>![A,CE]4 [A,B,^D]4) | [E,G,B,E]4- [E,G,B,E]2 z2 | !fermata!z8 || %57
[K:E][M:3/4]"_una corda"!pp! [A,DB]4 [A,DB]2 | [G,EB]4 [G,EB]2 | [A,DB]4 [A,DB]2 | %60
 [G,EB]4 [G,EB]2 | [A,DB]4 [A,DB]2 | [G,EB]4 [G,EB]2 | [A,DB]4 [A,DB]2 | [G,EB]4 [G,EB]2 | %65
 [A,DB]4 [A,DB]2 | [G,EB]4 [G,EB]2 | [A,DB]6- | [A,DB]6 ||[M:4/4] E4 [Ee]4 | %70
!pp! [ege']4- !fermata![ege']2 z2 ||[K:G]!<(! (B,4 G,B,EF |{FE} D6)!<)!!>(! (B,2 | %73
[K:bass] G,4 E,G,CD | B,2 E4)!>)! z2 |"_dim." z8 | z8 |[K:treble]!pp! !fermata![EGBe]8 |] %78
V:4
!p! z8 | z8 | z8 |!f! z8 | z8 |!p! (([F,,,F,,]2 [B,,,B,,]4)) z2 | [B,^D]4- [B,D]2 z2 || %7
 [E,,B,,]4 [E,,B,,]4 | [E,,B,,]4 [E,,B,,]4 | [E,,B,,]4 [E,,B,,]4 | [E,,B,,]4 G,,4 | %11
 B,,4!ped! [E,,B,,]4 | [E,,B,,]4 [E,,B,,]2 z2!ped-up! | E,4 =D,4 | G,4 C,2 A,,2 | %15
 D,4!ped! [G,,D,]4- | [G,,D,]4- [G,,D,]2 z2!ped-up! | (A,4 G,4 | F,2 =F,2 E,2 _B,,2 | %19
 E,4 !fermata!^D,4) | [A,,,A,,]4 [G,,,G,,]4 |!f! [C,,C,]4 [B,,,B,,]4 |!p! (E,4 ^D,4) | %23
 [E,,,E,,]4- [E,,,E,,]2 z2 | !fermata!z8 ||[K:E][M:3/4]!ped! [E,,B,,F,]4 [E,,B,,F,]2!ped-up! | %26
!ped! [E,,B,,E,]4 [E,,B,,E,]2!ped-up! |!ped! [E,,B,,F,]4 [E,,B,,F,]2!ped-up! | %28
!ped! [E,,B,,E,]4 [E,,B,,E,]2!ped-up! |"_simile"!ped! [E,,B,,F,]4 [E,,B,,F,]2!ped-up! | %30
!ped! [E,,B,,E,]4 [E,,B,,E,]2!ped-up! |!ped! [E,,B,,F,]4 [E,,B,,F,]2!ped-up! | %32
 [E,,B,,E,]4 [E,,B,,E,]2 | [E,,B,,F,]4 [E,,B,,F,]2 | [E,,B,,E,]4 [E,,B,,E,]2 | [E,,B,,F,]6- | %36
 [E,,B,,F,]6 ||[M:4/4] [E,,E,]4 E,4 |[K:treble] [EB]4- !fermata![EB]2 z2 || %39
[K:G][K:bass] [E,,B,,]4 [E,,B,,]4 | [E,,B,,]4 [E,,B,,]4 | [E,,B,,]4 [E,,B,,]4 | [E,,B,,]4 G,,4 | %43
 B,,4!ped! [E,,B,,]4- | [E,,B,,]4- [E,,B,,]2 z2!ped-up! | E,4 =D,4 | G,4 C,2 A,,2 | %47
 D,4!ped! [G,,D,]4- | [G,,D,]4- [G,,D,]2 z2!ped-up! | (A,4 G,4 | F,2 =F,2 E,2 _B,,2 | %51
 E,4 !fermata!^D,4) | [A,,,A,,]4 [G,,,G,,]4 |!f! [C,,C,]4 [B,,,B,,]4 |!p! (E,4 ^D,4) | %55
 [E,,,E,,]4- [E,,,E,,]2 z2 | !fermata!z8 ||[K:E][M:3/4]!ped! [E,,B,,F,]4 [E,,B,,F,]2!ped-up! | %58
!ped! [E,,B,,E,]4 [E,,B,,E,]2!ped-up! |!ped! [E,,B,,F,]4 [E,,B,,F,]2!ped-up! | %60
!ped! [E,,B,,E,]4 [E,,B,,E,]2!ped-up! |!ped! [E,,B,,F,]4 [E,,B,,F,]2!ped-up! | %62
!ped! [E,,B,,E,]4 [E,,B,,E,]2!ped-up! |!ped! [E,,B,,F,]4 [E,,B,,F,]2!ped-up! | %64
 [E,,B,,E,]4 [E,,B,,E,]2 | [E,,B,,F,]4 [E,,B,,F,]2 | [E,,B,,E,]4 [E,,B,,E,]2 | [E,,B,,F,]6- | %68
 [E,,B,,F,]6 ||[M:4/4] [E,,E,]4 E,4 |[K:treble] [EB]4- !fermata![EB]2 z2 ||[K:G][K:bass] z8 | z8 | %73
 z8 | z8 | (B,,2 E,4) z2 | ([B,,,,B,,,]2 [E,,,E,,]4) z2 | !fermata![E,B,]8 |] %78
V:5
 x8 | x8 | x8 | x8 | x8 | x8 | x8 || x8 | x8 | x8 | x8 | x8 | [G,B,]4- [G,B,]2 x2 | x8 | x8 | x8 | %16
 [G,B,D]4- [G,B,D]2 x2 | x8 | x4 ^G,4 | A,4 F,4 | x8 | E4 E4 | x8 | x8 | x8 ||[K:E][M:3/4] x6 | %26
 x6 | x6 | x6 | x6 | x6 | x6 | x6 | x6 | x6 | x6 | x6 ||[M:4/4] (G,2 A,2) (G2 A2) | x8 ||[K:G] x8 | %40
 x8 | x8 | x8 | x8 | [G,B,]4- [G,B,]2 x2 | x8 | x8 | x8 | [G,B,D]4- [G,B,D]2 x2 | x8 | x4 ^G,4 | %51
 A,4 F,4 | x8 | E4 E4 | x8 | x8 | x8 ||[K:E][M:3/4] x6 | x6 | x6 | x6 | x6 | x6 | x6 | x6 | x6 | %66
 x6 | x6 | x6 ||[M:4/4] (G,2 A,2) (G2 A2) | x8 ||[K:G] x8 | x8 |[K:bass] x8 | x8 | x8 | x8 | %77
[K:treble] x8 |] %78
V:6
 x8 | x8 | x8 | x8 | x8 | x8 | x8 || x8 | x8 | x8 | x8 | x8 | x8 | x8 | x8 | x8 | x8 | x8 | %18
 x4 E,4 | A,,4 ^D,4 | x8 | x8 | [B,,,,B,,,]8 | x8 | x8 ||[K:E][M:3/4] x6 | x6 | x6 | x6 | x6 | x6 | %31
 x6 | x6 | x6 | x6 | x6 | x6 ||[M:4/4] (B,,2 C,2) (B,2 C2) |[K:treble] x8 ||[K:G][K:bass] x8 | x8 | %41
 x8 | x8 | x8 | x8 | x8 | x8 | x8 | x8 | x8 | x4 E,4 | A,,4 ^D,4 | x8 | x8 | [B,,,,B,,,]8 | x8 | %56
 x8 ||[K:E][M:3/4] x6 | x6 | x6 | x6 | x6 | x6 | x6 | x6 | x6 | x6 | x6 | x6 || %69
[M:4/4] (B,,2 C,2) (B,2 C2) |[K:treble] x8 ||[K:G][K:bass] x8 | x8 | x8 | x8 | x8 | x8 | x8 |] %78

